src/main/resources/icons/AllIcons/nodes/cvs_roots.svg

<svg xmlns="http://www.w3.org/2000/svg" width="16" height="16" viewBox="0 0 16 16"><rect id="frame" width="16" height="16" fill="none"/><g fill="none" fill-rule="evenodd"><path fill="#9AA7B0" d="M8 1a7 7 0 1 0 0 14A7 7 0 0 0 8 1m0 1c3.309 0 6 2.691 6 6s-2.691 6-6 6-6-2.691-6-6 2.691-6 6-6"/><path fill="#D9A343" d="M7.5 4c-.722 0-1.395.166-2 .434C6.977 5.09 8 6.434 8 8c0 1.566-1.023 2.91-2.5 3.566a4.921 4.921 0 0 0 2 .434c2.485 0 4.5-1.791 4.5-4S9.985 4 7.5 4"/><path fill="#D9A343" d="M9 5.143L7 4l2-1z"/><path fill="#D9A343" d="M10 13l-2-1.143 2-1z"/><path fill="#D9A343" d="M13 11l-2-2.286V7.286L13 5l-.571 3z"/><path fill="#D9A343" d="M4.5 8a.5.5 0 1 1 0-1 .5.5 0 0 1 0 1m-.102-2.887C3.54 5.841 3 6.862 3 8c0 .348.065.679.16 1H4.5c.275 0 .5.225.5.5s-.225.5-.5.5h-.866c.214.324.46.629.764.887C5.892 10.545 7 9.387 7 8S5.892 5.455 4.398 5.113"/></g></svg>

<!-- Copyright 2000-2021 JetBrains s.r.o. Use of this source code is governed by the Apache 2.0 license that can be found in the LICENSE file. -->
<svg xmlns="http://www.w3.org/2000/svg" width="16" height="16" viewBox="0 0 16 16">
  <g fill="none" fill-rule="evenodd">
    <path fill="#9AA7B0" d="M8,1 C4.134,1 1,4.134 1,8 C1,11.866 4.134,15 8,15 C11.866,15 15,11.866 15,8 C15,4.134 11.866,1 8,1 M8,2 C11.309,2 14,4.691 14,8 C14,11.309 11.309,14 8,14 C4.691,14 2,11.309 2,8 C2,4.691 4.691,2 8,2"/>
    <path fill="#D9A343" d="M7.5,4 C6.778,4 6.105,4.166 5.5,4.434 C6.977,5.09 8,6.434 8,8 C8,9.566 6.977,10.91 5.5,11.566 C6.105,11.834 6.778,12 7.5,12 C9.985,12 12,10.209 12,8 C12,5.791 9.985,4 7.5,4"/>
    <polygon fill="#D9A343" points="9 5.143 7 4 9 3"/>
    <polygon fill="#D9A343" points="10 13 8 11.857 10 10.857"/>
    <polygon fill="#D9A343" points="13 11 11 8.714 11 7.286 13 5 12.429 8"/>
    <path fill="#D9A343" d="M4.5,8 C4.224,8 4,7.776 4,7.5 C4,7.224 4.224,7 4.5,7 C4.776,7 5,7.224 5,7.5 C5,7.776 4.776,8 4.5,8 M4.398,5.113 C3.54,5.841 3,6.862 3,8 C3,8.348 3.065,8.679 3.16,9 L4.5,9 C4.775,9 5,9.225 5,9.5 C5,9.775 4.775,10 4.5,10 L3.634,10 C3.848,10.324 4.094,10.629 4.398,10.887 C5.892,10.545 7,9.387 7,8 C7,6.613 5.892,5.455 4.398,5.113"/>
  </g>
</svg>
